packages/core/src/svgs/tokens/branded/PSWAP.svg

<svg width="24" height="24" viewBox="0 0 24 24" fill="none" xmlns="http://www.w3.org/2000/svg">
<path d="M10.9191 2.35022C10.6539 2.54046 10.4444 2.79835 10.3127 3.09704C10.1809 3.39572 10.1317 3.72426 10.17 4.04847C10.2254 4.43696 10.3143 4.88649 10.4475 5.40818C10.897 7.15637 11.4132 8.96005 11.9903 10.836C11.9959 10.8581 12.007 10.8581 12.0125 10.836C12.4565 9.40399 12.8671 7.98329 13.2502 6.56808C13.4333 5.91321 13.5887 5.27498 13.7274 4.6534C13.7985 4.37934 13.8395 4.09833 13.8495 3.81538C13.8435 3.47777 13.7451 3.14825 13.5651 2.86261C13.3851 2.57697 13.1302 2.34612 12.8282 2.19511C12.5262 2.04411 12.1886 1.97872 11.852 2.00607C11.5155 2.03342 11.1929 2.15244 10.9191 2.35022ZM6.86783 9.38739C7.27297 9.66493 7.73916 9.88688 8.17759 10.0867C9.22651 10.564 10.3198 11.0079 11.4686 11.4297C11.4964 11.4353 11.502 11.4297 11.4964 11.402C11.1634 10.514 10.8304 9.6705 10.4974 8.88791C10.2785 8.37012 10.0397 7.86101 9.78152 7.36171C9.66329 7.12509 9.51994 6.90182 9.35415 6.69573C9.18328 6.50391 8.97419 6.34994 8.74029 6.2437C8.50638 6.13746 8.25286 6.08131 7.99598 6.07885C7.73909 6.07638 7.48454 6.12766 7.24864 6.22939C7.01275 6.33112 6.80074 6.48106 6.62622 6.66957C6.4517 6.85809 6.31854 7.081 6.23526 7.32403C6.15198 7.56705 6.12045 7.8248 6.14268 8.08074C6.1649 8.33666 6.24041 8.58511 6.36434 8.81015C6.48827 9.03518 6.65787 9.2318 6.86228 9.38739H6.86783ZM14.299 7.4061C14.3822 7.23961 14.4711 7.08422 14.5765 6.91772C14.7227 6.68599 14.9187 6.48976 15.1503 6.34334C15.382 6.19694 15.6433 6.10401 15.9153 6.07135C16.1873 6.03869 16.4632 6.06712 16.7229 6.15455C16.9827 6.24199 17.2195 6.38625 17.4163 6.5768C17.6133 6.76735 17.7652 6.99942 17.861 7.2561C17.9569 7.51277 17.9943 7.7876 17.9706 8.06056C17.9468 8.33353 17.8625 8.59775 17.7236 8.834C17.5848 9.07026 17.3951 9.27258 17.1684 9.42627C16.8353 9.64265 16.4856 9.82589 16.125 9.99229C15.0261 10.5029 13.8551 10.9802 12.6285 11.4297C12.6063 11.4353 12.6008 11.4297 12.6063 11.4076C13.1058 10.0756 13.6386 8.68811 14.299 7.4061ZM2.92191 10.3919C2.59609 10.5832 2.33671 10.8696 2.1787 11.2128C2.02068 11.556 1.97163 11.9393 2.03815 12.3112C2.10466 12.6831 2.28355 13.0256 2.55071 13.2928C2.81789 13.5598 3.16048 13.7386 3.53238 13.805C3.77103 13.8495 4.07072 13.8328 4.43146 13.7606C4.75335 13.6996 5.06969 13.6275 5.39158 13.5387C7.20082 13.0836 9.02117 12.5563 10.8304 12.0069C10.8693 11.9903 10.8693 11.9791 10.8304 11.968C8.86022 11.3631 6.86228 10.7748 4.85324 10.2975C4.14842 10.1311 3.55459 10.0201 2.92745 10.3919H2.92191ZM21.9356 11.5352C22.2131 12.7173 21.4084 13.7385 20.2263 13.8383C19.9829 13.8405 19.7404 13.8106 19.5048 13.7496C18.8333 13.5997 18.1728 13.4443 17.5346 13.2667C16.0639 12.8671 14.6043 12.4453 13.1614 12.0014C13.1336 11.9903 13.1336 11.9847 13.1614 11.9736C15.0482 11.3853 16.8797 10.8637 18.6556 10.4196C18.9387 10.3419 19.2439 10.2754 19.5714 10.2088C19.8658 10.1386 20.1706 10.1236 20.4705 10.1644C20.8208 10.2275 21.1453 10.3905 21.4052 10.6337C21.6652 10.8768 21.8494 11.1899 21.9356 11.5352ZM16.852 14.3489C16.5815 14.2001 16.3056 14.0613 16.025 13.9327C14.9066 13.4226 13.7679 12.9579 12.6119 12.5397V12.5507C13.0892 13.8716 13.6164 15.1482 14.2047 16.3802C14.3378 16.6577 14.5765 17.1072 14.8207 17.3514C15.0143 17.5404 15.2472 17.6843 15.5025 17.7736C15.7579 17.8627 16.0298 17.8947 16.2989 17.8672C16.568 17.8396 16.8279 17.7535 17.06 17.6146C17.2921 17.4757 17.4911 17.2876 17.6424 17.0634C17.7939 16.8394 17.8944 16.5847 17.9367 16.3175C17.979 16.0504 17.9622 15.7771 17.8872 15.5171C17.8123 15.2572 17.6813 15.0169 17.5034 14.813C17.3254 14.6093 17.105 14.4471 16.8576 14.3378L16.852 14.3489ZM11.4797 12.6119C10.9247 14.1103 10.392 15.3813 9.87579 16.4302C9.70252 16.8409 9.44327 17.21 9.11551 17.5124C8.78014 17.7658 8.36857 17.8978 7.94833 17.8865C7.52811 17.8752 7.12417 17.7215 6.80281 17.4505C6.48147 17.1794 6.26178 16.8073 6.17981 16.395C6.09784 15.9826 6.15844 15.5548 6.3517 15.1815C6.48489 14.9372 6.64584 14.743 6.85118 14.6043C7.11758 14.4155 7.41726 14.2435 7.73916 14.0881C8.96183 13.5128 10.2121 12.9979 11.4853 12.5453L11.4964 12.5563V12.5842L11.4797 12.6119ZM10.1644 19.9543C10.1159 20.3921 10.2257 20.8328 10.4742 21.1965C10.7226 21.5603 11.0931 21.823 11.5186 21.9371C11.944 22.0512 12.3963 22.0091 12.7933 21.8184C13.1904 21.6278 13.5061 21.301 13.683 20.8978C13.9328 20.3593 13.8495 19.8433 13.7218 19.2716C13.2168 17.2034 12.643 15.1526 12.0015 13.1225C11.4409 14.9095 10.9193 16.7298 10.4419 18.5946C10.331 19.0275 10.2033 19.5769 10.1644 19.9543Z" fill="#FF005E"/>
</svg>

<svg xmlns="http://www.w3.org/2000/svg" width="24" height="24" fill="none" viewBox="0 0 24 24">
    <path fill="#FF005E" d="M10.92 2.35a1.83 1.83 0 0 0-.75 1.698c.055.389.144.838.277 1.36.45 1.748.966 3.552 1.543 5.428.006.022.017.022.022 0a122 122 0 0 0 1.238-4.268c.183-.655.339-1.293.477-1.915q.107-.412.123-.838a1.849 1.849 0 0 0-2.93-1.465M6.867 9.387c.405.278.871.5 1.31.7a47 47 0 0 0 3.29 1.343c.028.005.034 0 .028-.028a63 63 0 0 0-.999-2.514 22 22 0 0 0-.715-1.526 3.7 3.7 0 0 0-.428-.666 1.843 1.843 0 1 0-2.492 2.691zm7.431-1.98c.083-.167.172-.323.277-.49a1.843 1.843 0 1 1 2.592 2.51 8 8 0 0 1-1.043.565c-1.099.51-2.27.988-3.496 1.438-.023.005-.028 0-.023-.022.5-1.332 1.033-2.72 1.693-4.002M2.922 10.391a1.848 1.848 0 0 0 .61 3.413q.358.066.9-.044c.321-.061.638-.133.96-.222 1.809-.455 3.63-.983 5.438-1.532q.06-.024 0-.039c-1.97-.605-3.968-1.193-5.977-1.67-.705-.167-1.298-.278-1.926.094zm19.014 1.143c.277 1.182-.528 2.204-1.71 2.303a2.8 2.8 0 0 1-.721-.088 39 39 0 0 1-1.97-.483q-2.207-.6-4.374-1.266c-.027-.01-.027-.016 0-.027a99 99 0 0 1 5.495-1.554c.283-.078.588-.145.915-.211.295-.07.6-.085.9-.045a1.85 1.85 0 0 1 1.465 1.371m-5.084 2.814q-.405-.224-.827-.416a46 46 0 0 0-3.413-1.393v.01a42 42 0 0 0 1.593 3.83c.133.278.371.727.616.971a1.85 1.85 0 0 0 2.821-.288 1.847 1.847 0 0 0-.784-2.725zm-5.372-1.737q-.831 2.246-1.604 3.818c-.173.41-.433.78-.76 1.082a1.854 1.854 0 0 1-2.764-2.33c.133-.245.294-.439.5-.578.266-.188.565-.36.887-.516a41 41 0 0 1 3.746-1.543l.011.011v.028zm-1.316 7.342a1.842 1.842 0 0 0 3.519.944c.25-.539.167-1.055.039-1.626a96 96 0 0 0-1.72-6.15 107 107 0 0 0-1.56 5.473c-.111.433-.239.982-.278 1.36"/>
</svg>
